apps/praktika/stuff/social/instagram.svg

<?xml version="1.0" encoding="UTF-8"?>
<svg width="21px" height="21px" viewBox="0 0 21 21" version="1.1" xmlns="http://www.w3.org/2000/svg" xmlns:xlink="http://www.w3.org/1999/xlink">
    <!-- Generator: Sketch 48.2 (47327) - http://www.bohemiancoding.com/sketch -->
    <title>Group Copy</title>
    <desc>Created with Sketch.</desc>
    <defs></defs>
    <g id="desctop" stroke="none" stroke-width="1" fill="none" fill-rule="evenodd">
        <g id="Group-Copy" fill="#000000">
            <path d="M10.5000208,0 C13.3516288,0 13.7091999,0.0120871465 14.8291366,0.0631866005 C15.9467391,0.114161015 16.7100216,0.29167535 17.377899,0.551257242 C18.0683668,0.819550215 18.6539265,1.17858015 19.237694,1.76230597 C19.8214199,2.34607346 20.1804498,2.93163319 20.4487844,3.62210102 C20.7083247,4.28997839 20.885839,5.05326085 20.9368134,6.17086343 C20.9879129,7.29080007 21,7.64837121 21,10.5000208 C21,13.3516288 20.9879129,13.7091999 20.9368134,14.8291366 C20.885839,15.9467391 20.7083247,16.7100216 20.4487844,17.377899 C20.1804498,18.0683668 19.8214199,18.6539265 19.237694,19.237694 C18.6539265,19.8214199 18.0683668,20.1804498 17.377899,20.4487844 C16.7100216,20.7083247 15.9467391,20.885839 14.8291366,20.9368134 C13.7091999,20.9879129 13.3516288,21 10.5000208,21 C7.64837121,21 7.29080007,20.9879129 6.17086343,20.9368134 C5.05326085,20.885839 4.28997839,20.7083247 3.62210102,20.4487844 C2.93163319,20.1804498 2.34607346,19.8214199 1.76230597,19.237694 C1.17858015,18.6539265 0.819550215,18.0683668 0.551257242,17.377899 C0.29167535,16.7100216 0.114161015,15.9467391 0.0631866005,14.8291366 C0.0120871465,13.7091999 0,13.3516288 0,10.5000208 C0,7.64837121 0.0120871465,7.29080007 0.0631866005,6.17086343 C0.114161015,5.05326085 0.29167535,4.28997839 0.551257242,3.62210102 C0.819550215,2.93163319 1.17858015,2.34607346 1.76230597,1.76230597 C2.34607346,1.17858015 2.93163319,0.819550215 3.62210102,0.551257242 C4.28997839,0.29167535 5.05326085,0.114161015 6.17086343,0.0631866005 C7.29080007,0.0120871465 7.64837121,0 10.5000208,0 Z M10.5000208,1.89188851 C7.69638636,1.89188851 7.36428159,1.90260023 6.25709897,1.95311616 C5.23335933,1.99979756 4.67739227,2.17085152 4.30740055,2.31464688 C3.8172876,2.50512364 3.46751058,2.73265375 3.10010301,3.10010301 C2.73265375,3.46751058 2.50512364,3.8172876 2.31464688,4.30740055 C2.17085152,4.67739227 1.99979756,5.23335933 1.95311616,6.25709897 C1.90260023,7.36428159 1.89188851,7.69638636 1.89188851,10.5000208 C1.89188851,13.3036136 1.90260023,13.6357184 1.95311616,14.742901 C1.99979756,15.7666407 2.17085152,16.3226077 2.31464688,16.6925995 C2.50512364,17.1827124 2.73269543,17.5324894 3.10010301,17.899897 C3.46751058,18.2673462 3.8172876,18.4948764 4.30740055,18.6853531 C4.67739227,18.8291485 5.23335933,19.0002024 6.25709897,19.0468838 C7.36415655,19.0973998 7.69617796,19.1081115 10.5000208,19.1081115 C13.303822,19.1081115 13.6358851,19.0973998 14.742901,19.0468838 C15.7666407,19.0002024 16.3226077,18.8291485 16.6925995,18.6853531 C17.1827124,18.4948764 17.5324894,18.2673462 17.899897,17.899897 C18.2673462,17.5324894 18.4948764,17.1827124 18.6853531,16.6925995 C18.8291485,16.3226077 19.0002024,15.7666407 19.0468838,14.742901 C19.0973998,13.6357184 19.1081115,13.3036136 19.1081115,10.5000208 C19.1081115,7.69638636 19.0973998,7.36428159 19.0468838,6.25709897 C19.0002024,5.23335933 18.8291485,4.67739227 18.6853531,4.30740055 C18.4948764,3.8172876 18.2673462,3.46751058 17.899897,3.10010301 C17.5324894,2.73265375 17.1827124,2.50512364 16.6925995,2.31464688 C16.3226077,2.17085152 15.7666407,1.99979756 14.742901,1.95311616 C13.6357184,1.90260023 13.3036136,1.89188851 10.5000208,1.89188851 Z M10.5000208,5.10811149 C13.4778769,5.10811149 15.8918885,7.52212305 15.8918885,10.5000208 C15.8918885,13.4778769 13.4778769,15.8918885 10.5000208,15.8918885 C7.52212305,15.8918885 5.10811149,13.4778769 5.10811149,10.5000208 C5.10811149,7.52212305 7.52212305,5.10811149 10.5000208,5.10811149 Z M10.5000208,14 C12.4330057,14 14,12.4330057 14,10.5000208 C14,8.56699435 12.4330057,7 10.5000208,7 C8.56699435,7 7,8.56699435 7,10.5000208 C7,12.4330057 8.56699435,14 10.5000208,14 Z M17.3649366,4.89508595 C17.3649366,5.59097215 16.8008003,6.15506678 16.1049141,6.15506678 C15.4090695,6.15506678 14.8449332,5.59097215 14.8449332,4.89508595 C14.8449332,4.19919975 15.4090695,3.63506344 16.1049141,3.63506344 C16.8008003,3.63506344 17.3649366,4.19919975 17.3649366,4.89508595 Z" id="Instagram"></path>
        </g>
    </g>
</svg>

<svg width="21" height="21" xmlns="http://www.w3.org/2000/svg"><path d="M10.5 0c2.852 0 3.21.012 4.33.063 1.117.051 1.88.229 2.548.488.69.269 1.276.628 1.86 1.211.583.584.942 1.17 1.21 1.86.26.668.438 1.431.489 2.549.05 1.12.063 1.477.063 4.329 0 2.852-.012 3.21-.063 4.33-.051 1.117-.229 1.88-.488 2.548a5.147 5.147 0 0 1-1.211 1.86 5.147 5.147 0 0 1-1.86 1.21c-.668.26-1.431.438-2.549.489-1.12.05-1.477.063-4.329.063-2.852 0-3.21-.012-4.33-.063-1.117-.051-1.88-.229-2.548-.488a5.147 5.147 0 0 1-1.86-1.211 5.147 5.147 0 0 1-1.21-1.86c-.26-.668-.438-1.431-.489-2.549C.013 13.71 0 13.352 0 10.5c0-2.852.012-3.21.063-4.33.051-1.117.229-1.88.488-2.548a5.147 5.147 0 0 1 1.211-1.86 5.147 5.147 0 0 1 1.86-1.21C4.29.291 5.053.113 6.171.062 7.29.013 7.648 0 10.5 0zm0 1.892c-2.804 0-3.136.01-4.243.061-1.024.047-1.58.218-1.95.362-.49.19-.84.418-1.207.785a3.253 3.253 0 0 0-.785 1.207c-.144.37-.315.926-.362 1.95-.05 1.107-.061 1.44-.061 4.243 0 2.804.01 3.136.061 4.243.047 1.024.218 1.58.362 1.95.19.49.418.84.785 1.207.368.367.717.595 1.207.785.37.144.926.315 1.95.362 1.107.05 1.44.061 4.243.061 2.804 0 3.136-.01 4.243-.061 1.024-.047 1.58-.218 1.95-.362.49-.19.84-.418 1.207-.785.367-.368.595-.717.785-1.207.144-.37.315-.926.362-1.95.05-1.107.061-1.44.061-4.243 0-2.804-.01-3.136-.061-4.243-.047-1.024-.218-1.58-.362-1.95-.19-.49-.418-.84-.785-1.207a3.253 3.253 0 0 0-1.207-.785c-.37-.144-.926-.315-1.95-.362-1.107-.05-1.44-.061-4.243-.061zm0 3.216a5.392 5.392 0 1 1 0 10.784 5.392 5.392 0 0 1 0-10.784zm0 8.892a3.5 3.5 0 1 0 0-7 3.5 3.5 0 0 0 0 7zm6.865-9.105a1.26 1.26 0 1 1-2.52 0 1.26 1.26 0 0 1 2.52 0z" fill="#000" fill-rule="evenodd"/></svg>
